assets/features/global-acquiring/mastercard.svg

<svg width="24" height="16" viewBox="0 0 24 16" fill="none" xmlns="http://www.w3.org/2000/svg">
<rect width="24" height="16" rx="4" fill="black"/>
<path d="M9.7191 11.7896C11.8394 11.7896 13.5582 10.066 13.5582 7.93996C13.5582 5.81387 11.8394 4.09033 9.7191 4.09033C7.59883 4.09033 5.88 5.81387 5.88 7.93996C5.88 10.066 7.59883 11.7896 9.7191 11.7896Z" fill="#EB001B"/>
<path d="M14.3562 11.7896C16.4765 11.7896 18.1953 10.066 18.1953 7.93996C18.1953 5.81387 16.4765 4.09033 14.3562 4.09033C12.2359 4.09033 10.5171 5.81387 10.5171 7.93996C10.5171 10.066 12.2359 11.7896 14.3562 11.7896Z" fill="#F79E1B"/>
<path d="M12.0367 4.86572C12.961 5.5681 13.5562 6.68115 13.5562 7.93237C13.5562 9.1836 12.961 10.2986 12.0367 11.0009C11.1123 10.2986 10.5171 9.18551 10.5171 7.93237C10.5171 6.67923 11.1142 5.5681 12.0367 4.86572Z" fill="#FF5F00"/>
</svg>

<svg xmlns="http://www.w3.org/2000/svg" width="24" height="16" fill="none" viewBox="0 0 24 16"><rect width="24" height="16" fill="#000" rx="4"/><path fill="#eb001b" d="M9.72 11.79a3.844 3.844 0 0 0 3.838-3.85A3.844 3.844 0 0 0 9.72 4.09a3.844 3.844 0 0 0-3.84 3.85 3.844 3.844 0 0 0 3.84 3.85"/><path fill="#f79e1b" d="M14.356 11.79c2.12 0 3.84-1.724 3.84-3.85a3.844 3.844 0 0 0-3.84-3.85 3.844 3.844 0 0 0-3.839 3.85 3.844 3.844 0 0 0 3.84 3.85"/><path fill="#ff5f00" d="M12.037 4.866a3.84 3.84 0 0 1 1.52 3.066 3.85 3.85 0 0 1-1.52 3.069 3.84 3.84 0 0 1-1.52-3.069c0-1.253.597-2.364 1.52-3.066"/></svg>
